;FLAVOR:Marlin
;TIME:3400
;Filament used: 2.06317m
;Layer height: 0.15
;MINX:112.2
;MINY:122.2
;MINZ:0.2
;MAXX:187.8
;MAXY:177.8
;MAXZ:3.95
;TARGET_MACHINE.NAME:Alfawise U20
;Generated with Cura_SteamEngine 5.9.0
M140 S60
M105
M190 S60
M104 S200
M105
M109 S200
M82 ;absolute extrusion mode
; -- START GCODE --
G21                     ;set units to millimetres
G90                     ;set to absolute positioning
M106 S0                 ;set fan speed to zero (turned off)
G28                     ;home all axis
G92 E0                  ;zero the extruded length
G1 Z1 F1000             ;move up slightly
G1 Y60.0 Z0 E9.0 F1000.0;intro line
G1 Y100.0 E21.5 F1000.0 ;continue line
G92 E0                  ;zero the extruded length again
; -- end of START GCODE --
G92 E0
G92 E0
G1 F2700 E-5
;LAYER_COUNT:26
;LAYER:0
M107
G0 F3600 X180.754 Y177.748 Z0.2
;TYPE:SKIRT
G1 F2700 E0
G1 F1200 X119.283 Y177.8 E2.04453
G1 X117.282 Y177.361 E2.11267
G1 X115.496 Y176.361 E2.18075
G1 X114.553 Y175.622 E2.2206
G1 X113.472 Y174.276 E2.27802
G1 X112.474 Y172.26 E2.35284
G1 X112.252 Y170.754 E2.40347
G1 X112.2 Y129.378 E3.77964
G1 X112.622 Y127.321 E3.84948
G1 X113.617 Y125.55 E3.91704
G1 X114.39 Y124.552 E3.95903
G1 X115.743 Y123.46 E4.01686
G1 X117.722 Y122.474 E4.0904
G1 X119.246 Y122.252 E4.14162
G1 X180.622 Y122.2 E6.183
G1 X182.679 Y122.622 E6.25284
G1 X184.45 Y123.617 E6.3204
G1 X185.448 Y124.39 E6.36239
G1 X186.54 Y125.743 E6.42022
G1 X187.526 Y127.722 E6.49376
G1 X187.748 Y129.246 E6.54498
G1 X187.8 Y170.622 E7.92115
G1 X187.378 Y172.679 E7.99099
G1 X186.383 Y174.45 E8.05856
G1 X185.61 Y175.448 E8.10054
G1 X184.257 Y176.54 E8.15837
G1 X182.278 Y177.526 E8.23191
G1 X180.754 Y177.748 E8.28313
G0 F3600 X180.696 Y177.352
G1 F1200 X119.328 Y177.4 E10.32424
G1 X117.424 Y176.982 E10.38908
G1 X115.743 Y176.046 E10.45307
G1 X114.837 Y175.336 E10.49136
G1 X113.808 Y174.055 E10.54601
G1 X112.861 Y172.142 E10.617
G1 X112.648 Y170.696 E10.66562
G1 X112.6 Y129.419 E12.03849
G1 X113.002 Y127.462 E12.10494
G1 X113.933 Y125.795 E12.16845
G1 X114.678 Y124.833 E12.20892
G1 X115.96 Y123.799 E12.2637
G1 X117.842 Y122.861 E12.33364
G1 X119.304 Y122.648 E12.38278
G1 X180.581 Y122.6 E14.42086
G1 X182.538 Y123.002 E14.48731
G1 X184.205 Y123.933 E14.55081
G1 X185.167 Y124.678 E14.59128
G1 X186.201 Y125.96 E14.64606
G1 X187.139 Y127.842 E14.716
G1 X187.352 Y129.304 E14.76514
G1 X187.4 Y170.581 E16.13802
G1 X186.998 Y172.538 E16.20447
G1 X186.067 Y174.205 E16.26798
G1 X185.322 Y175.167 E16.30845
G1 X184.04 Y176.201 E16.36323
G1 X182.158 Y177.139 E16.43317
G1 X180.696 Y177.352 E16.48231
G0 F3600 X180.638 Y176.956
G1 F1200 X119.373 Y177 E18.51999
G1 X117.567 Y176.603 E18.58149
G1 X115.99 Y175.731 E18.64143
G1 X115.121 Y175.05 E18.67815
G1 X114.144 Y173.834 E18.73003
G1 X113.248 Y172.024 E18.7972
G1 X113.044 Y170.638 E18.8438
G1 X113 Y129.461 E20.21335
G1 X113.382 Y127.603 E20.27644
G1 X114.249 Y126.04 E20.33589
G1 X114.966 Y125.114 E20.37484
G1 X116.177 Y124.138 E20.42657
G1 X117.962 Y123.248 E20.49291
G1 X119.362 Y123.044 E20.53997
G1 X180.539 Y123 E22.57472
G1 X182.397 Y123.382 E22.63781
G1 X183.96 Y124.249 E22.69726
G1 X184.886 Y124.966 E22.73621
G1 X185.862 Y126.177 E22.78794
G1 X186.752 Y127.962 E22.85428
G1 X186.956 Y129.362 E22.90134
G1 X187 Y170.539 E24.27089
G1 X186.618 Y172.397 E24.33398
G1 X185.751 Y173.96 E24.39343
G1 X185.034 Y174.886 E24.43238
G1 X183.823 Y175.862 E24.48411
G1 X182.038 Y176.752 E24.55045
G1 X180.638 Y176.956 E24.59751
G1 F2700 E19.59751
G0 F3600 X181.918 Y176.365
G1 F2700 E24.59751
G1 F1200 X180.58 Y176.56 E24.64248
G1 X119.418 Y176.6 E26.67674
G1 X117.709 Y176.224 E26.73494
G1 X116.237 Y175.416 E26.79079
G1 X115.405 Y174.764 E26.82595
G1 X114.483 Y173.617 E26.87489
G1 X113.635 Y171.903 E26.9385
G1 X113.44 Y170.58 E26.98297
G1 X113.4 Y129.503 E28.3492
G1 X113.762 Y127.743 E28.40896
G1 X114.599 Y126.234 E28.46636
G1 X115.251 Y125.398 E28.50162
G1 X116.397 Y124.475 E28.55056
G1 X118.082 Y123.635 E28.61318
G1 X119.42 Y123.44 E28.65816
G1 X180.497 Y123.4 E30.68958
G1 X182.257 Y123.762 E30.74935
G1 X183.766 Y124.599 E30.80674
G1 X184.602 Y125.251 E30.842
G1 X185.525 Y126.397 E30.89094
G1 X186.365 Y128.082 E30.95357
G1 X186.56 Y129.42 E30.99854
G1 X186.6 Y170.497 E32.36477
G1 X186.238 Y172.257 E32.42453
G1 X185.401 Y173.766 E32.48192
G1 X184.749 Y174.602 E32.51718
G1 X183.603 Y175.525 E32.56613
G1 X181.918 Y176.365 E32.62875
G0 F3600 X181.798 Y175.978
G1 F1200 X180.522 Y176.164 E32.67164
G1 X119.463 Y176.2 E34.70247
G1 X117.849 Y175.845 E34.75743
G1 X116.484 Y175.101 E34.80914
G1 X115.686 Y174.476 E34.84285
G1 X114.821 Y173.399 E34.88879
G1 X114.022 Y171.785 E34.94869
G1 X113.836 Y170.522 E34.99115
G1 X113.8 Y129.545 E36.35406
G1 X114.142 Y127.883 E36.41049
G1 X114.949 Y126.428 E36.46583
G1 X115.535 Y125.683 E36.49736
G1 X116.617 Y124.812 E36.54356
G1 X118.202 Y124.022 E36.60246
G1 X119.478 Y123.836 E36.64535
G1 X180.455 Y123.8 E38.67345
G1 X182.117 Y124.142 E38.72989
G1 X183.572 Y124.949 E38.78523
G1 X184.317 Y125.535 E38.81675
G1 X185.188 Y126.617 E38.86295
G1 X185.978 Y128.202 E38.92185
G1 X186.164 Y129.478 E38.96474
G1 X186.2 Y170.455 E40.32764
G1 X185.858 Y172.117 E40.38408
G1 X185.051 Y173.572 E40.43942
G1 X184.465 Y174.317 E40.47094
G1 X183.383 Y175.188 E40.51714
G1 X181.798 Y175.978 E40.57604
G0 F3600 X181.677 Y175.591
G1 F1200 X180.464 Y175.768 E40.61682
G1 X119.508 Y175.8 E42.64422
G1 X117.989 Y175.466 E42.69595
G1 X116.731 Y174.786 E42.74351
G1 X115.97 Y174.19 E42.77566
G1 X115.157 Y173.178 E42.81884
G1 X114.409 Y171.667 E42.87492
G1 X114.232 Y170.464 E42.91536
G1 X114.2 Y129.587 E44.27493
G1 X114.522 Y128.023 E44.32804
G1 X115.299 Y126.622 E44.38133
G1 X115.82 Y125.968 E44.40914
G1 X116.835 Y125.151 E44.45247
G1 X118.323 Y124.409 E44.50778
G1 X119.536 Y124.232 E44.54855
G1 X180.413 Y124.2 E46.57333
G1 X181.977 Y124.522 E46.62644
G1 X183.378 Y125.299 E46.67972
G1 X184.032 Y125.82 E46.70753
G1 X184.849 Y126.835 E46.75087
G1 X185.591 Y128.323 E46.80617
G1 X185.768 Y129.536 E46.84694
G1 X185.8 Y170.413 E48.20652
G1 X185.478 Y171.977 E48.25963
G1 X184.701 Y173.378 E48.31291
G1 X184.18 Y174.032 E48.34072
G1 X183.165 Y174.849 E48.38406
G1 X181.677 Y175.591 E48.43936
G0 F3600 X181.557 Y175.204
G1 F1200 X180.406 Y175.372 E48.47805
G1 X119.553 Y175.4 E50.50203
G1 X118.13 Y175.087 E50.55049
G1 X116.978 Y174.471 E50.59394
G1 X116.254 Y173.904 E50.62453
G1 X115.493 Y172.957 E50.66493
G1 X114.796 Y171.549 E50.71719
G1 X114.628 Y170.406 E50.75561
G1 X114.6 Y129.629 E52.11186
G1 X114.902 Y128.162 E52.16168
G1 X115.612 Y126.871 E52.21068
G1 X116.104 Y126.254 E52.23693
G1 X117.055 Y125.488 E52.27754
G1 X118.443 Y124.796 E52.32913
G1 X119.594 Y124.628 E52.36781
G1 X180.371 Y124.6 E54.38927
G1 X181.838 Y124.902 E54.43908
G1 X183.129 Y125.612 E54.48809
G1 X183.746 Y126.104 E54.51433
G1 X184.512 Y127.055 E54.55495
G1 X185.204 Y128.443 E54.60653
G1 X185.372 Y129.594 E54.64522
G1 X185.4 Y170.371 E56.00147
G1 X185.098 Y171.838 E56.05128
G1 X184.388 Y173.129 E56.10029
G1 X183.896 Y173.746 E56.12654
G1 X182.945 Y174.512 E56.16715
G1 X181.557 Y175.204 E56.21874
G0 F3600 X181.437 Y174.817
G1 F1200 X180.348 Y174.976 E56.25534
G1 X119.598 Y175 E58.27589
G1 X118.27 Y174.708 E58.32112
G1 X117.167 Y174.118 E58.36272
G1 X116.539 Y173.619 E58.3894
G1 X115.829 Y172.736 E58.42709
G1 X115.183 Y171.431 E58.47552
G1 X115.024 Y170.348 E58.51192
G1 X115 Y129.671 E59.86485
G1 X115.282 Y128.3 E59.9114
G1 X115.925 Y127.12 E59.9561
G1 X116.39 Y126.537 E59.9809
G1 X117.271 Y125.827 E60.01853
G1 X118.563 Y125.183 E60.06655
G1 X119.652 Y125.024 E60.10315
G1 X180.329 Y125 E62.12128
G1 X181.7 Y125.282 E62.16783
G1 X182.88 Y125.925 E62.21253
G1 X183.463 Y126.39 E62.23733
G1 X184.173 Y127.271 E62.27496
G1 X184.817 Y128.563 E62.32298
G1 X184.976 Y129.652 E62.35958
G1 X185 Y170.329 E63.71251
G1 X184.718 Y171.7 E63.75906
G1 X184.075 Y172.88 E63.80376
G1 X183.61 Y173.463 E63.82856
G1 X182.729 Y174.173 E63.86619
G1 X181.437 Y174.817 E63.91421
G0 F3600 X181.317 Y174.43
G1 F1200 X180.29 Y174.58 E63.94873
G1 X119.643 Y174.6 E65.96585
G1 X118.41 Y174.329 E66.00784
G1 X117.356 Y173.765 E66.0476
G1 X116.825 Y173.336 E66.07031
G1 X116.165 Y172.515 E66.10534
G1 X115.57 Y171.313 E66.14995
G1 X115.42 Y170.29 E66.18434
G1 X115.4 Y129.713 E67.53394
G1 X115.662 Y128.438 E67.57723
G1 X116.238 Y127.369 E67.61762
G1 X116.674 Y126.822 E67.64088
G1 X117.491 Y126.164 E67.67577
G1 X118.683 Y125.57 E67.72007
G1 X119.71 Y125.42 E67.75459
G1 X180.287 Y125.4 E69.76939
G1 X181.562 Y125.662 E69.81268
G1 X182.631 Y126.238 E69.85307
G1 X183.178 Y126.674 E69.87634
G1 X183.836 Y127.491 E69.91123
G1 X184.43 Y128.683 E69.95552
G1 X184.58 Y129.71 E69.99004
G1 X184.6 Y170.287 E71.33964
G1 X184.338 Y171.562 E71.38293
G1 X183.762 Y172.631 E71.42332
G1 X183.326 Y173.178 E71.44659
G1 X182.509 Y173.836 E71.48148
G1 X181.317 Y174.43 E71.52577
G0 F3600 X181.197 Y174.043
G1 F1200 X180.232 Y174.184 E71.55821
G1 X119.688 Y174.2 E73.57191
G1 X118.55 Y173.95 E73.61066
G1 X117.578 Y173.43 E73.64733
G1 X117.111 Y173.052 E73.66731
G1 X116.501 Y172.294 E73.69967
G1 X115.957 Y171.195 E73.74046
G1 X115.816 Y170.232 E73.77283
G1 X115.8 Y129.754 E75.11913
G1 X116.042 Y128.576 E75.15913
G1 X116.59 Y127.559 E75.19756
G1 X116.956 Y127.109 E75.21685
G1 X117.711 Y126.501 E75.24909
G1 X118.803 Y125.957 E75.28967
G1 X119.768 Y125.816 E75.3221
G1 X180.246 Y125.8 E77.33361
G1 X181.424 Y126.042 E77.37361
G1 X182.441 Y126.59 E77.41203
G1 X182.891 Y126.956 E77.43133
G1 X183.499 Y127.711 E77.46357
G1 X184.043 Y128.803 E77.50414
G1 X184.184 Y129.768 E77.53658
G1 X184.2 Y170.246 E78.88289
G1 X183.958 Y171.424 E78.92288
G1 X183.41 Y172.441 E78.96131
G1 X183.044 Y172.891 E78.9806
G1 X182.289 Y173.499 E79.01284
G1 X181.197 Y174.043 E79.05342
G0 F3600 X181.077 Y173.656
G1 F1200 X180.174 Y173.788 E79.08377
G1 X119.733 Y173.8 E81.09405
G1 X118.69 Y173.571 E81.12956
G1 X117.767 Y173.077 E81.16438
G1 X117.398 Y172.77 E81.18035
G1 X116.839 Y172.075 E81.21001
G1 X116.344 Y171.076 E81.2471
G1 X116.212 Y170.174 E81.27742
G1 X116.2 Y129.795 E82.62043
G1 X116.422 Y128.714 E82.65713
G1 X116.905 Y127.806 E82.69134
G1 X117.207 Y127.421 E82.70761
G1 X117.931 Y126.838 E82.73853
G1 X118.923 Y126.344 E82.77539
G1 X119.826 Y126.212 E82.80574
G1 X180.205 Y126.2 E84.81396
G1 X181.286 Y126.422 E84.85066
G1 X182.194 Y126.905 E84.88487
G1 X182.579 Y127.207 E84.90114
G1 X183.162 Y127.931 E84.93206
G1 X183.656 Y128.923 E84.96892
G1 X183.788 Y129.826 E84.99927
G1 X183.8 Y170.205 E86.34228
G1 X183.578 Y171.286 E86.37899
G1 X183.095 Y172.194 E86.41319
G1 X182.793 Y172.579 E86.42947
G1 X182.069 Y173.162 E86.46039
G1 X181.077 Y173.656 E86.49724
G0 F3600 X180.957 Y173.269
G1 F1200 X180.116 Y173.392 E86.52551
G1 X119.778 Y173.4 E88.53236
G1 X118.83 Y173.192 E88.56464
G1 X117.956 Y172.724 E88.59762
G1 X117.71 Y172.519 E88.60827
G1 X117.177 Y171.856 E88.63656
G1 X116.731 Y170.957 E88.66994
G1 X116.608 Y170.116 E88.69821
G1 X116.6 Y129.836 E90.03793
G1 X116.802 Y128.85 E90.07141
G1 X117.226 Y128.045 E90.10167
G1 X117.458 Y127.733 E90.1146
G1 X118.151 Y127.175 E90.14419
G1 X119.043 Y126.731 E90.17733
G1 X119.884 Y126.608 E90.2056
G1 X180.164 Y126.6 E92.21052
G1 X181.15 Y126.802 E92.244
G1 X181.955 Y127.226 E92.27426
G1 X182.267 Y127.458 E92.28719
G1 X182.825 Y128.151 E92.31678
G1 X183.269 Y129.043 E92.34992
G1 X183.392 Y129.884 E92.37819
G1 X183.4 Y170.164 E93.71791
G1 X183.198 Y171.15 E93.75139
G1 X182.774 Y171.955 E93.78165
G1 X182.542 Y172.267 E93.79458
G1 X181.849 Y172.825 E93.82417
G1 X180.957 Y173.269 E93.85731
G0 F3600 X180.837 Y172.882
G1 F1200 X180.058 Y172.996 E93.8835
G1 X119.823 Y173 E95.88692
G1 X118.97 Y172.813 E95.91597
G1 X118.145 Y172.371 E95.9471
G1 X118.022 Y172.268 E95.95243
G1 X117.515 Y171.637 E95.97935
G1 X117.118 Y170.837 E96.00906
G1 X117.004 Y170.058 E96.03524
G1 X117 Y129.877 E97.37167
G1 X117.182 Y128.987 E97.40188
G1 X117.58 Y128.232 E97.43027
G1 X117.749 Y128.012 E97.4395
G1 X118.367 Y127.514 E97.46589
G1 X119.163 Y127.118 E97.49547
G1 X119.942 Y127.004 E97.52165
G1 X180.123 Y127 E99.52328
G1 X181.013 Y127.182 E99.55349
G1 X181.768 Y127.58 E99.58188
G1 X181.988 Y127.749 E99.59111
G1 X182.486 Y128.367 E99.6175
G1 X182.882 Y129.163 E99.64708
G1 X182.996 Y129.942 E99.67326
G1 X183 Y170.123 E101.00969
G1 X182.818 Y171.013 E101.0399
G1 X182.42 Y171.768 E101.06829
G1 X182.251 Y171.988 E101.07751
G1 X181.633 Y172.486 E101.10391
G1 X180.837 Y172.882 E101.13348
G0 F3600 X180.717 Y172.495
G1 F1200 X180 Y172.6 E101.15758
G1 X119.868 Y172.6 E103.15758
G1 X119.11 Y172.434 E103.18339
G1 X118.334 Y172.018 E103.21268
G1 X117.854 Y171.42 E103.23818
G1 X117.505 Y170.717 E103.26429
G1 X117.4 Y170 E103.28839
G1 X117.4 Y129.918 E104.62152
G1 X117.563 Y129.122 E104.64854
G1 X117.934 Y128.418 E104.67501
G1 X118.037 Y128.293 E104.6804
G1 X118.583 Y127.853 E104.70372
G1 X119.283 Y127.505 E104.72972
G1 X120 Y127.4 E104.75382
G1 X180.082 Y127.4 E106.75216
G1 X180.878 Y127.563 E106.77918
G1 X181.582 Y127.934 E106.80565
G1 X181.707 Y128.037 E106.81104
G1 X182.147 Y128.583 E106.83436
G1 X182.495 Y129.283 E106.86036
G1 X182.6 Y130 E106.88446
G1 X182.6 Y170.082 E108.2176
G1 X182.437 Y170.878 E108.24462
G1 X182.066 Y171.582 E108.27109
G1 X181.963 Y171.707 E108.27648
G1 X181.417 Y172.147 E108.2998
G1 X180.717 Y172.495 E108.3258
G0 F3600 X180.595 Y172.109
G1 F1200 X180 Y172.2 E108.34582
G1 X119.913 Y172.2 E110.34432
G1 X119.247 Y172.054 E110.367
G1 X118.597 Y171.705 E110.39154
G1 X118.192 Y171.201 E110.41304
G1 X117.891 Y170.595 E110.43555
G1 X117.8 Y170 E110.45557
G1 X117.8 Y129.959 E111.78733
G1 X117.944 Y129.257 E111.81117
G1 X118.288 Y128.604 E111.83572
G1 X118.799 Y128.192 E111.85755
G1 X119.405 Y127.891 E111.88005
G1 X120 Y127.8 E111.90007
G1 X180.041 Y127.8 E113.89705
G1 X180.743 Y127.944 E113.92088
G1 X181.396 Y128.288 E113.94543
G1 X181.808 Y128.799 E113.96726
G1 X182.109 Y129.405 E113.98977
G1 X182.2 Y130 E114.00979
G1 X182.2 Y170.041 E115.34156
G1 X182.056 Y170.743 E115.36539
G1 X181.712 Y171.396 E115.38994
G1 X181.201 Y171.808 E115.41177
G1 X180.595 Y172.109 E115.43428
G0 F3600 X180.474 Y171.723
G1 F1200 X180 Y171.8 E115.45025
G1 X119.958 Y171.8 E117.44725
G1 X119.384 Y171.674 E117.4668
G1 X118.859 Y171.392 E117.48662
G1 X118.55 Y171.023 E117.50263
G1 X118.277 Y170.474 E117.52302
G1 X118.2 Y170 E117.53899
G1 X118.2 Y130 E118.8694
G1 X118.324 Y129.394 E118.88997
G1 X118.605 Y128.862 E118.90998
G1 X118.977 Y128.55 E118.92613
G1 X119.526 Y128.277 E118.94652
G1 X120 Y128.2 E118.9625
G1 X180 Y128.2 E120.9581
G1 X180.606 Y128.324 E120.97868
G1 X181.138 Y128.605 E120.99869
G1 X181.45 Y128.977 E121.01484
G1 X181.723 Y129.526 E121.03523
G1 X181.8 Y130 E121.0512
G1 X181.8 Y170 E122.38161
G1 X181.676 Y170.606 E122.40218
G1 X181.395 Y171.138 E122.42219
G1 X181.023 Y171.45 E122.43834
G1 X180.474 Y171.723 E122.45873
G0 F3600 X180.351 Y171.338
G1 F1200 X180.845 Y171.092 E122.47709
G1 X181.077 Y170.883 E122.48747
G1 X181.322 Y170.419 E122.50492
G1 X181.4 Y170 E122.5191
G1 X181.4 Y130 E123.84951
G1 X181.338 Y129.649 E123.86136
G1 X181.092 Y129.155 E123.87972
G1 X180.883 Y128.923 E123.8901
G1 X180.419 Y128.678 E123.90755
G1 X180 Y128.6 E123.92173
G1 X120 Y128.6 E125.91734
G1 X119.649 Y128.662 E125.92919
G1 X119.155 Y128.908 E125.94755
G1 X118.923 Y129.117 E125.95793
G1 X118.678 Y129.581 E125.97538
G1 X118.6 Y130 E125.98956
G1 X118.6 Y170 E127.31997
G1 X118.662 Y170.351 E127.33182
G1 X118.908 Y170.845 E127.35018
G1 X119.117 Y171.077 E127.36056
G1 X119.477 Y171.285 E127.37439
G1 X119.958 Y171.4 E127.39084
G1 X180 Y171.4 E129.38784
G1 X180.351 Y171.338 E129.3997
G0 F3600 X180.273 Y170.946
G1 F1200 X180 Y171 E129.40895
G1 X120 Y171 E131.40456
G1 X119.662 Y170.93 E131.41604
G1 X119.399 Y170.793 E131.42591
G1 X119.26 Y170.655 E131.43242
G1 X119.054 Y170.273 E131.44686
G1 X119 Y170 E131.45611
G1 X119 Y130 E132.78652
G1 X119.07 Y129.662 E132.798
G1 X119.207 Y129.399 E132.80786
G1 X119.345 Y129.26 E132.81438
G1 X119.727 Y129.054 E132.82881
G1 X120 Y129 E132.83807
G1 X180 Y129 E134.83367
G1 X180.338 Y129.07 E134.84516
G1 X180.601 Y129.207 E134.85502
G1 X180.74 Y129.345 E134.86153
