(Exported by FreeCAD)
(Post Processor: script_module)
(Output Time:2024-12-19 20:31:30.597366)
(begin preamble)
G17 G90
G21
(begin operation: Fixture)
G54
(finish operation: Fixture)
(begin operation: TC: Default Tool)
(TC: Default Tool)
M6 T1.0
(finish operation: TC: Default Tool)
(begin operation: DressupTag)
G0 Z9.0000
G0 X51.7678 Y36.7678 Z9.0000
G0 X51.7678 Y36.7678 Z7.0000
G1 X51.7678 Y36.7678 Z2.0000 F240.0000 S0.0
G2 X52.5000 Y35.0000 Z2.0000 I-1.7678 J-1.7678 F900.0000 S0.0
G1 X52.5000 Y0.0000 Z2.0000 F900.0000 S0.0
G2 X50.0000 Y-2.5000 Z2.0000 I-2.5000 J0.0000 F900.0000 S0.0
G1 X39.4700 Y-2.5000 Z2.0000 F900.0000 S0.0
G1 X39.1216 Y-2.5000 Z2.3484 F570.0000 S0.0
G1 X39.0866 Y-2.5000 Z2.3826 F574.6200 S0.0
G1 X39.0586 Y-2.5000 Z2.4089 F582.8700 S0.0
G1 X39.0236 Y-2.5000 Z2.4406 F590.9550 S0.0
G1 X38.9933 Y-2.5000 Z2.4670 F599.2050 S0.0
G1 X38.9612 Y-2.5000 Z2.4939 F606.9600 S0.0
G1 X38.9217 Y-2.5000 Z2.5256 F615.7050 S0.0
G1 X38.8815 Y-2.5000 Z2.5565 F625.2750 S0.0
G1 X38.8405 Y-2.5000 Z2.5864 F634.8450 S0.0
G1 X38.8105 Y-2.5000 Z2.6074 F643.0950 S0.0
G1 X38.7699 Y-2.5000 Z2.6347 F651.1800 S0.0
G1 X38.7391 Y-2.5000 Z2.6546 F659.2650 S0.0
G1 X38.7049 Y-2.5000 Z2.6758 F666.5250 S0.0
G1 X38.6674 Y-2.5000 Z2.6982 F674.4450 S0.0
G1 X38.6310 Y-2.5000 Z2.7189 F682.5300 S0.0
G1 X38.5910 Y-2.5000 Z2.7406 F690.7800 S0.0
G1 X38.5429 Y-2.5000 Z2.7654 F700.1850 S0.0
G1 X38.5147 Y-2.5000 Z2.7793 F708.2700 S0.0
G1 X38.4735 Y-2.5000 Z2.7986 F715.5300 S0.0
G1 X38.4336 Y-2.5000 Z2.8163 F723.9450 S0.0
G1 X38.4079 Y-2.5000 Z2.8273 F730.7100 S0.0
G1 X38.3642 Y-2.5000 Z2.8451 F737.8050 S0.0
G1 X38.3169 Y-2.5000 Z2.8631 F747.0450 S0.0
G1 X38.2476 Y-2.5000 Z2.8873 F758.7600 S0.0
G1 X38.2043 Y-2.5000 Z2.9011 F769.9800 S0.0
G1 X38.1708 Y-2.5000 Z2.9112 F777.5700 S0.0
G1 X38.1018 Y-2.5000 Z2.9301 F787.6350 S0.0
G1 X37.9757 Y-2.5000 Z2.9586 F806.6100 S0.0
G1 X37.5485 Y-2.5000 Z3.0000 F859.4100 S0.0
G1 X37.4515 Y-2.5000 Z3.0000 F900.0000 S0.0
G1 X37.0243 Y-2.5000 Z2.9586 F859.4100 S0.0
G1 X36.9509 Y-2.5000 Z2.9429 F811.7250 S0.0
G1 X36.8982 Y-2.5000 Z2.9301 F799.5150 S0.0
G1 X36.8292 Y-2.5000 Z2.9112 F787.6350 S0.0
G1 X36.7957 Y-2.5000 Z2.9011 F777.5700 S0.0
G1 X36.7524 Y-2.5000 Z2.8873 F769.9800 S0.0
G1 X36.6831 Y-2.5000 Z2.8631 F758.7600 S0.0
G1 X36.6358 Y-2.5000 Z2.8451 F747.0450 S0.0
G1 X36.5921 Y-2.5000 Z2.8273 F737.8050 S0.0
G1 X36.5456 Y-2.5000 Z2.8072 F728.5650 S0.0
G1 X36.5027 Y-2.5000 Z2.7875 F719.3250 S0.0
G1 X36.4571 Y-2.5000 Z2.7654 F710.0850 S0.0
G1 X36.4090 Y-2.5000 Z2.7406 F700.1850 S0.0
G1 X36.3690 Y-2.5000 Z2.7189 F690.7800 S0.0
G1 X36.3326 Y-2.5000 Z2.6982 F682.5300 S0.0
G1 X36.2951 Y-2.5000 Z2.6758 F674.4450 S0.0
G1 X36.2609 Y-2.5000 Z2.6546 F666.5250 S0.0
G1 X36.2301 Y-2.5000 Z2.6347 F659.2650 S0.0
G1 X36.1895 Y-2.5000 Z2.6074 F651.1800 S0.0
G1 X36.1595 Y-2.5000 Z2.5864 F643.0950 S0.0
G1 X36.1185 Y-2.5000 Z2.5565 F634.8450 S0.0
G1 X36.0783 Y-2.5000 Z2.5256 F625.2750 S0.0
G1 X36.0388 Y-2.5000 Z2.4939 F615.7050 S0.0
G1 X36.0067 Y-2.5000 Z2.4670 F606.9600 S0.0
G1 X35.9764 Y-2.5000 Z2.4406 F599.2050 S0.0
G1 X35.9414 Y-2.5000 Z2.4089 F590.9550 S0.0
G1 X35.9134 Y-2.5000 Z2.3826 F582.8700 S0.0
G1 X35.8784 Y-2.5000 Z2.3484 F574.6200 S0.0
G1 X35.5300 Y-2.5000 Z2.0000 F570.0000 S0.0
G1 X14.4700 Y-2.5000 Z2.0000 F900.0000 S0.0
G1 X14.1216 Y-2.5000 Z2.3484 F570.0000 S0.0
G1 X14.0689 Y-2.5000 Z2.3994 F576.9300 S0.0
G1 X13.9679 Y-2.5000 Z2.4883 F596.5650 S0.0
G1 X13.6367 Y-2.5000 Z2.7157 F647.2542 S0.0
G1 X13.3021 Y-2.5000 Z2.8685 F720.0193 S0.0
G1 X12.9134 Y-2.5000 Z2.9699 F792.7842 S0.0
G1 X12.5485 Y-2.5000 Z3.0000 F865.3843 S0.0
G1 X12.4515 Y-2.5000 Z3.0000 F900.0000 S0.0
G1 X12.0515 Y-2.5000 Z2.9637 F862.0158 S0.0
G1 X11.6979 Y-2.5000 Z2.8685 F789.4157 S0.0
G1 X11.3338 Y-2.5000 Z2.6988 F716.8158 S0.0
G1 X11.0321 Y-2.5000 Z2.4883 F644.0507 S0.0
G1 X10.9311 Y-2.5000 Z2.3994 F596.5650 S0.0
G1 X10.8784 Y-2.5000 Z2.3484 F576.9300 S0.0
G1 X10.5300 Y-2.5000 Z2.0000 F570.0000 S0.0
G1 X0.0000 Y-2.5000 Z2.0000 F900.0000 S0.0
G2 X-2.5000 Y0.0000 Z2.0000 I0.0000 J2.5000 F900.0000 S0.0
G1 X-2.5000 Y35.0000 Z2.0000 F900.0000 S0.0
G2 X0.0000 Y37.5000 Z2.0000 I2.5000 J-0.0000 F900.0000 S0.0
G1 X10.5300 Y37.5000 Z2.0000 F900.0000 S0.0
G1 X10.8784 Y37.5000 Z2.3484 F570.0000 S0.0
G1 X11.0334 Y37.5000 Z2.4895 F589.8000 S0.0
G1 X11.2039 Y37.5000 Z2.6173 F629.7300 S0.0
G1 X11.5555 Y37.5000 Z2.8116 F687.8444 S0.0
G1 X11.7990 Y37.5000 Z2.9022 F750.3794 S0.0
G1 X12.1921 Y37.5000 Z2.9848 F812.9144 S0.0
G1 X12.4515 Y37.5000 Z3.0000 F875.4494 S0.0
G1 X12.5485 Y37.5000 Z3.0000 F900.0000 S0.0
G1 X12.9485 Y37.5000 Z2.9637 F862.0156 S0.0
G1 X13.1708 Y37.5000 Z2.9112 F802.4506 S0.0
G1 X13.5448 Y37.5000 Z2.7644 F742.8856 S0.0
G1 X13.7450 Y37.5000 Z2.6509 F683.1556 S0.0
G1 X13.7961 Y37.5000 Z2.6173 F655.6350 S0.0
G1 X13.9666 Y37.5000 Z2.4895 F629.7300 S0.0
G1 X14.1216 Y37.5000 Z2.3484 F589.8000 S0.0
G1 X14.4700 Y37.5000 Z2.0000 F570.0000 S0.0
G1 X35.5300 Y37.5000 Z2.0000 F900.0000 S0.0
G1 X35.8784 Y37.5000 Z2.3484 F570.0000 S0.0
G1 X35.9134 Y37.5000 Z2.3826 F574.6200 S0.0
G1 X35.9491 Y37.5000 Z2.4160 F583.8600 S0.0
G1 X35.9868 Y37.5000 Z2.4498 F593.2650 S0.0
G1 X36.0254 Y37.5000 Z2.4828 F602.8350 S0.0
G1 X36.0578 Y37.5000 Z2.5093 F611.5800 S0.0
G1 X36.0825 Y37.5000 Z2.5289 F618.5100 S0.0
G1 X36.1227 Y37.5000 Z2.5596 F626.2650 S0.0
G1 X36.1609 Y37.5000 Z2.5874 F635.5050 S0.0
G1 X36.1996 Y37.5000 Z2.6143 F644.4150 S0.0
G1 X36.2418 Y37.5000 Z2.6424 F653.6550 S0.0
G1 X36.2846 Y37.5000 Z2.6694 F663.2250 S0.0
G1 X36.3220 Y37.5000 Z2.6920 F672.1350 S0.0
G1 X36.3538 Y37.5000 Z2.7103 F679.7250 S0.0
G1 X36.3920 Y37.5000 Z2.7315 F687.3150 S0.0
G1 X36.4291 Y37.5000 Z2.7511 F695.4000 S0.0
G1 X36.4665 Y37.5000 Z2.7701 F703.3200 S0.0
G1 X36.5106 Y37.5000 Z2.7912 F711.9000 S0.0
G1 X36.5360 Y37.5000 Z2.8029 F719.1600 S0.0
G1 X36.5808 Y37.5000 Z2.8225 F726.4200 S0.0
G1 X36.6260 Y37.5000 Z2.8412 F735.6600 S0.0
G1 X36.6570 Y37.5000 Z2.8533 F743.4150 S0.0
G1 X36.7045 Y37.5000 Z2.8708 F751.3350 S0.0
G1 X36.7524 Y37.5000 Z2.8873 F760.9050 S0.0
G1 X36.8007 Y37.5000 Z2.9027 F770.4750 S0.0
G1 X36.8493 Y37.5000 Z2.9169 F780.0450 S0.0
G1 X36.9713 Y37.5000 Z2.9476 F796.7100 S0.0
G1 X37.4515 Y37.5000 Z3.0000 F854.2950 S0.0
G1 X37.5485 Y37.5000 Z3.0000 F900.0000 S0.0
G1 X38.0287 Y37.5000 Z2.9476 F854.2950 S0.0
G1 X38.1507 Y37.5000 Z2.9169 F796.7100 S0.0
G1 X38.1993 Y37.5000 Z2.9027 F780.0450 S0.0
G1 X38.2476 Y37.5000 Z2.8873 F770.4750 S0.0
G1 X38.2955 Y37.5000 Z2.8708 F760.9050 S0.0
G1 X38.3430 Y37.5000 Z2.8533 F751.3350 S0.0
G1 X38.3740 Y37.5000 Z2.8412 F743.4150 S0.0
G1 X38.4192 Y37.5000 Z2.8225 F735.6600 S0.0
G1 X38.4640 Y37.5000 Z2.8029 F726.4200 S0.0
G1 X38.4894 Y37.5000 Z2.7912 F719.1600 S0.0
G1 X38.5335 Y37.5000 Z2.7701 F711.9000 S0.0
G1 X38.5709 Y37.5000 Z2.7511 F703.3200 S0.0
G1 X38.6080 Y37.5000 Z2.7315 F695.4000 S0.0
G1 X38.6523 Y37.5000 Z2.7069 F686.6550 S0.0
G1 X38.6780 Y37.5000 Z2.6920 F679.0650 S0.0
G1 X38.7154 Y37.5000 Z2.6694 F672.1350 S0.0
G1 X38.7582 Y37.5000 Z2.6424 F663.2250 S0.0
G1 X38.8004 Y37.5000 Z2.6143 F653.6550 S0.0
G1 X38.8391 Y37.5000 Z2.5874 F644.4150 S0.0
G1 X38.8773 Y37.5000 Z2.5596 F635.5050 S0.0
G1 X38.9175 Y37.5000 Z2.5289 F626.2650 S0.0
G1 X38.9422 Y37.5000 Z2.5093 F618.5100 S0.0
G1 X38.9746 Y37.5000 Z2.4828 F611.5800 S0.0
G1 X39.0132 Y37.5000 Z2.4498 F602.8350 S0.0
G1 X39.0509 Y37.5000 Z2.4160 F593.2650 S0.0
G1 X39.0866 Y37.5000 Z2.3826 F583.8600 S0.0
G1 X39.1216 Y37.5000 Z2.3484 F574.6200 S0.0
G1 X39.4700 Y37.5000 Z2.0000 F570.0000 S0.0
G1 X50.0000 Y37.5000 Z2.0000 F900.0000 S0.0
G2 X51.7678 Y36.7678 Z2.0000 I-0.0000 J-2.5000 F900.0000 S0.0
G1 X51.7678 Y36.7678 Z0.0000 F240.0000 S0.0
G2 X52.5000 Y35.0000 Z0.0000 I-1.7678 J-1.7678 F900.0000 S0.0
G1 X52.5000 Y0.0000 Z0.0000 F900.0000 S0.0
G2 X50.0000 Y-2.5000 Z0.0000 I-2.5000 J0.0000 F900.0000 S0.0
G1 X41.4700 Y-2.5000 Z0.0000 F900.0000 S0.0
G1 X39.1216 Y-2.5000 Z2.3484 F570.0000 S0.0
G1 X39.0866 Y-2.5000 Z2.3826 F574.6200 S0.0
G1 X39.0586 Y-2.5000 Z2.4089 F582.8700 S0.0
G1 X39.0236 Y-2.5000 Z2.4406 F590.9550 S0.0
G1 X38.9933 Y-2.5000 Z2.4670 F599.2050 S0.0
G1 X38.9612 Y-2.5000 Z2.4939 F606.9600 S0.0
G1 X38.9217 Y-2.5000 Z2.5256 F615.7050 S0.0
G1 X38.8815 Y-2.5000 Z2.5565 F625.2750 S0.0
G1 X38.8405 Y-2.5000 Z2.5864 F634.8450 S0.0
G1 X38.8105 Y-2.5000 Z2.6074 F643.0950 S0.0
G1 X38.7699 Y-2.5000 Z2.6347 F651.1800 S0.0
G1 X38.7391 Y-2.5000 Z2.6546 F659.2650 S0.0
G1 X38.7049 Y-2.5000 Z2.6758 F666.5250 S0.0
G1 X38.6674 Y-2.5000 Z2.6982 F674.4450 S0.0
G1 X38.6310 Y-2.5000 Z2.7189 F682.5300 S0.0
G1 X38.5910 Y-2.5000 Z2.7406 F690.7800 S0.0
G1 X38.5429 Y-2.5000 Z2.7654 F700.1850 S0.0
G1 X38.5147 Y-2.5000 Z2.7793 F708.2700 S0.0
G1 X38.4735 Y-2.5000 Z2.7986 F715.5300 S0.0
G1 X38.4336 Y-2.5000 Z2.8163 F723.9450 S0.0
G1 X38.4079 Y-2.5000 Z2.8273 F730.7100 S0.0
G1 X38.3642 Y-2.5000 Z2.8451 F737.8050 S0.0
G1 X38.3169 Y-2.5000 Z2.8631 F747.0450 S0.0
G1 X38.2476 Y-2.5000 Z2.8873 F758.7600 S0.0
G1 X38.2043 Y-2.5000 Z2.9011 F769.9800 S0.0
G1 X38.1708 Y-2.5000 Z2.9112 F777.5700 S0.0
G1 X38.1018 Y-2.5000 Z2.9301 F787.6350 S0.0
G1 X37.9757 Y-2.5000 Z2.9586 F806.6100 S0.0
G1 X37.5485 Y-2.5000 Z3.0000 F859.4100 S0.0
G1 X37.4515 Y-2.5000 Z3.0000 F900.0000 S0.0
G1 X37.0243 Y-2.5000 Z2.9586 F859.4100 S0.0
G1 X36.9509 Y-2.5000 Z2.9429 F811.7250 S0.0
G1 X36.8982 Y-2.5000 Z2.9301 F799.5150 S0.0
G1 X36.8292 Y-2.5000 Z2.9112 F787.6350 S0.0
G1 X36.7957 Y-2.5000 Z2.9011 F777.5700 S0.0
G1 X36.7524 Y-2.5000 Z2.8873 F769.9800 S0.0
G1 X36.6831 Y-2.5000 Z2.8631 F758.7600 S0.0
G1 X36.6358 Y-2.5000 Z2.8451 F747.0450 S0.0
G1 X36.5921 Y-2.5000 Z2.8273 F737.8050 S0.0
G1 X36.5456 Y-2.5000 Z2.8072 F728.5650 S0.0
G1 X36.5027 Y-2.5000 Z2.7875 F719.3250 S0.0
G1 X36.4571 Y-2.5000 Z2.7654 F710.0850 S0.0
G1 X36.4090 Y-2.5000 Z2.7406 F700.1850 S0.0
G1 X36.3690 Y-2.5000 Z2.7189 F690.7800 S0.0
G1 X36.3326 Y-2.5000 Z2.6982 F682.5300 S0.0
G1 X36.2951 Y-2.5000 Z2.6758 F674.4450 S0.0
G1 X36.2609 Y-2.5000 Z2.6546 F666.5250 S0.0
G1 X36.2301 Y-2.5000 Z2.6347 F659.2650 S0.0
G1 X36.1895 Y-2.5000 Z2.6074 F651.1800 S0.0
G1 X36.1595 Y-2.5000 Z2.5864 F643.0950 S0.0
G1 X36.1185 Y-2.5000 Z2.5565 F634.8450 S0.0
G1 X36.0783 Y-2.5000 Z2.5256 F625.2750 S0.0
G1 X36.0388 Y-2.5000 Z2.4939 F615.7050 S0.0
G1 X36.0067 Y-2.5000 Z2.4670 F606.9600 S0.0
G1 X35.9764 Y-2.5000 Z2.4406 F599.2050 S0.0
G1 X35.9414 Y-2.5000 Z2.4089 F590.9550 S0.0
G1 X35.9134 Y-2.5000 Z2.3826 F582.8700 S0.0
G1 X35.8784 Y-2.5000 Z2.3484 F574.6200 S0.0
G1 X33.5300 Y-2.5000 Z0.0000 F570.0000 S0.0
G1 X16.4700 Y-2.5000 Z0.0000 F900.0000 S0.0
G1 X14.1216 Y-2.5000 Z2.3484 F570.0000 S0.0
G1 X14.0689 Y-2.5000 Z2.3994 F576.9300 S0.0
G1 X13.9679 Y-2.5000 Z2.4883 F596.5650 S0.0
G1 X13.6367 Y-2.5000 Z2.7157 F647.2542 S0.0
G1 X13.3021 Y-2.5000 Z2.8685 F720.0193 S0.0
G1 X12.9134 Y-2.5000 Z2.9699 F792.7842 S0.0
G1 X12.5485 Y-2.5000 Z3.0000 F865.3843 S0.0
G1 X12.4515 Y-2.5000 Z3.0000 F900.0000 S0.0
G1 X12.0515 Y-2.5000 Z2.9637 F862.0158 S0.0
G1 X11.6979 Y-2.5000 Z2.8685 F789.4157 S0.0
G1 X11.3338 Y-2.5000 Z2.6988 F716.8158 S0.0
G1 X11.0321 Y-2.5000 Z2.4883 F644.0507 S0.0
G1 X10.9311 Y-2.5000 Z2.3994 F596.5650 S0.0
G1 X10.8784 Y-2.5000 Z2.3484 F576.9300 S0.0
G1 X8.5300 Y-2.5000 Z0.0000 F570.0000 S0.0
G1 X0.0000 Y-2.5000 Z0.0000 F900.0000 S0.0
G2 X-2.5000 Y0.0000 Z0.0000 I0.0000 J2.5000 F900.0000 S0.0
G1 X-2.5000 Y35.0000 Z0.0000 F900.0000 S0.0
G2 X0.0000 Y37.5000 Z0.0000 I2.5000 J-0.0000 F900.0000 S0.0
G1 X8.5300 Y37.5000 Z0.0000 F900.0000 S0.0
G1 X10.8784 Y37.5000 Z2.3484 F570.0000 S0.0
G1 X11.0334 Y37.5000 Z2.4895 F589.8000 S0.0
G1 X11.2039 Y37.5000 Z2.6173 F629.7300 S0.0
G1 X11.5555 Y37.5000 Z2.8116 F687.8444 S0.0
G1 X11.7990 Y37.5000 Z2.9022 F750.3794 S0.0
G1 X12.1921 Y37.5000 Z2.9848 F812.9144 S0.0
G1 X12.4515 Y37.5000 Z3.0000 F875.4494 S0.0
G1 X12.5485 Y37.5000 Z3.0000 F900.0000 S0.0
G1 X12.9485 Y37.5000 Z2.9637 F862.0157 S0.0
G1 X13.2724 Y37.5000 Z2.8789 F792.3857 S0.0
G1 X13.6389 Y37.5000 Z2.7145 F722.7557 S0.0
G1 X13.9175 Y37.5000 Z2.5289 F653.1257 S0.0
G1 X13.9666 Y37.5000 Z2.4895 F615.5400 S0.0
G1 X14.0689 Y37.5000 Z2.3994 F596.7300 S0.0
G1 X14.1216 Y37.5000 Z2.3484 F576.9300 S0.0
G1 X16.4700 Y37.5000 Z0.0000 F570.0000 S0.0
G1 X33.5300 Y37.5000 Z0.0000 F900.0000 S0.0
G1 X35.8784 Y37.5000 Z2.3484 F570.0000 S0.0
G1 X35.9134 Y37.5000 Z2.3826 F574.6200 S0.0
G1 X35.9491 Y37.5000 Z2.4160 F583.8600 S0.0
G1 X35.9868 Y37.5000 Z2.4498 F593.2650 S0.0
G1 X36.0254 Y37.5000 Z2.4828 F602.8350 S0.0
G1 X36.0578 Y37.5000 Z2.5093 F611.5800 S0.0
G1 X36.0825 Y37.5000 Z2.5289 F618.5100 S0.0
G1 X36.1227 Y37.5000 Z2.5596 F626.2650 S0.0
G1 X36.1609 Y37.5000 Z2.5874 F635.5050 S0.0
G1 X36.1996 Y37.5000 Z2.6143 F644.4150 S0.0
G1 X36.2418 Y37.5000 Z2.6424 F653.6550 S0.0
G1 X36.2846 Y37.5000 Z2.6694 F663.2250 S0.0
G1 X36.3220 Y37.5000 Z2.6920 F672.1350 S0.0
G1 X36.3538 Y37.5000 Z2.7103 F679.7250 S0.0
G1 X36.3920 Y37.5000 Z2.7315 F687.3150 S0.0
G1 X36.4291 Y37.5000 Z2.7511 F695.4000 S0.0
G1 X36.4665 Y37.5000 Z2.7701 F703.3200 S0.0
G1 X36.5106 Y37.5000 Z2.7912 F711.9000 S0.0
G1 X36.5360 Y37.5000 Z2.8029 F719.1600 S0.0
G1 X36.5808 Y37.5000 Z2.8225 F726.4200 S0.0
G1 X36.6260 Y37.5000 Z2.8412 F735.6600 S0.0
G1 X36.6570 Y37.5000 Z2.8533 F743.4150 S0.0
G1 X36.7045 Y37.5000 Z2.8708 F751.3350 S0.0
G1 X36.7524 Y37.5000 Z2.8873 F760.9050 S0.0
G1 X36.8007 Y37.5000 Z2.9027 F770.4750 S0.0
G1 X36.8493 Y37.5000 Z2.9169 F780.0450 S0.0
G1 X36.9713 Y37.5000 Z2.9476 F796.7100 S0.0
G1 X37.4515 Y37.5000 Z3.0000 F854.2950 S0.0
G1 X37.5485 Y37.5000 Z3.0000 F900.0000 S0.0
G1 X38.0287 Y37.5000 Z2.9476 F854.2950 S0.0
G1 X38.1507 Y37.5000 Z2.9169 F796.7100 S0.0
G1 X38.1993 Y37.5000 Z2.9027 F780.0450 S0.0
G1 X38.2476 Y37.5000 Z2.8873 F770.4750 S0.0
G1 X38.2955 Y37.5000 Z2.8708 F760.9050 S0.0
G1 X38.3430 Y37.5000 Z2.8533 F751.3350 S0.0
G1 X38.3740 Y37.5000 Z2.8412 F743.4150 S0.0
G1 X38.4192 Y37.5000 Z2.8225 F735.6600 S0.0
G1 X38.4640 Y37.5000 Z2.8029 F726.4200 S0.0
G1 X38.4894 Y37.5000 Z2.7912 F719.1600 S0.0
G1 X38.5335 Y37.5000 Z2.7701 F711.9000 S0.0
G1 X38.5709 Y37.5000 Z2.7511 F703.3200 S0.0
G1 X38.6080 Y37.5000 Z2.7315 F695.4000 S0.0
G1 X38.6523 Y37.5000 Z2.7069 F686.6550 S0.0
G1 X38.6780 Y37.5000 Z2.6920 F679.0650 S0.0
G1 X38.7154 Y37.5000 Z2.6694 F672.1350 S0.0
G1 X38.7582 Y37.5000 Z2.6424 F663.2250 S0.0
G1 X38.8004 Y37.5000 Z2.6143 F653.6550 S0.0
G1 X38.8391 Y37.5000 Z2.5874 F644.4150 S0.0
G1 X38.8773 Y37.5000 Z2.5596 F635.5050 S0.0
G1 X38.9175 Y37.5000 Z2.5289 F626.2650 S0.0
G1 X38.9422 Y37.5000 Z2.5093 F618.5100 S0.0
G1 X38.9746 Y37.5000 Z2.4828 F611.5800 S0.0
G1 X39.0132 Y37.5000 Z2.4498 F602.8350 S0.0
G1 X39.0509 Y37.5000 Z2.4160 F593.2650 S0.0
G1 X39.0866 Y37.5000 Z2.3826 F583.8600 S0.0
G1 X39.1216 Y37.5000 Z2.3484 F574.6200 S0.0
G1 X41.4700 Y37.5000 Z0.0000 F570.0000 S0.0
G1 X50.0000 Y37.5000 Z0.0000 F900.0000 S0.0
G2 X51.7678 Y36.7678 Z0.0000 I-0.0000 J-2.5000 F900.0000 S0.0
G0 X51.7678 Y36.7678 Z9.0000
(finish operation: DressupTag)
(begin operation: Pocket_Shape)
(Pocket_Shape)
G0 Z9.0000
G0
G0 X14.7844 Y16.2228
G0 X14.7844 Y16.2228 Z7.0000
G1 X14.7844 Y16.2228 Z2.0000 F240.0000 S0.0
G3 X15.2156 Y13.7772 Z2.0000 I0.2156 J-1.2228 F900.0000 S0.0
G3 X14.7844 Y16.2228 Z2.0000 I-0.2156 J1.2228 F900.0000 S0.0
G0 Z9.0000
G0 X14.5671 Y17.4550 Z9.0000
G0 X14.5671 Y17.4550 Z7.0000
G1 X14.5671 Y17.4550 Z2.0000 F240.0000 S0.0
G3 X15.4329 Y12.5450 Z2.0000 I0.4329 J-2.4550 F900.0000 S0.0
G3 X14.5671 Y17.4550 Z2.0000 I-0.4329 J2.4550 F900.0000 S0.0
G0 Z9.0000
G0 X13.6981 Y22.3837 Z9.0000
G0 X13.6981 Y22.3837 Z7.0000
G1 X13.6981 Y22.3837 Z2.0000 F240.0000 S0.0
G3 X16.3019 Y7.6163 Z2.0000 I1.3019 J-7.3837 F900.0000 S0.0
G3 X13.6981 Y22.3837 Z2.0000 I-1.3019 J7.3837 F900.0000 S0.0
G0 Z9.0000
G0 X14.7844 Y16.2228 Z9.0000
G0 X14.7844 Y16.2228 Z7.0000
G1 X14.7844 Y16.2228 Z0.0000 F240.0000 S0.0
G3 X15.2156 Y13.7772 Z0.0000 I0.2156 J-1.2228 F900.0000 S0.0
G3 X14.7844 Y16.2228 Z0.0000 I-0.2156 J1.2228 F900.0000 S0.0
G0 Z9.0000
G0 X14.5671 Y17.4550 Z9.0000
G0 X14.5671 Y17.4550 Z7.0000
G1 X14.5671 Y17.4550 Z0.0000 F240.0000 S0.0
G3 X15.4329 Y12.5450 Z0.0000 I0.4329 J-2.4550 F900.0000 S0.0
G3 X14.5671 Y17.4550 Z0.0000 I-0.4329 J2.4550 F900.0000 S0.0
G0 Z9.0000
G0 X13.6981 Y22.3837 Z9.0000
G0 X13.6981 Y22.3837 Z7.0000
G1 X13.6981 Y22.3837 Z0.0000 F240.0000 S0.0
G3 X16.3019 Y7.6163 Z0.0000 I1.3019 J-7.3837 F900.0000 S0.0
G3 X13.6981 Y22.3837 Z0.0000 I-1.3019 J7.3837 F900.0000 S0.0
G0 Z9.0000
G0 Z9.0000
(finish operation: Pocket_Shape)
(begin postamble)
M05
G17 G90
M2
